src/assets/icons/weeks,simple,48.svg

<svg width="48" height="48" viewBox="0 0 48 48" fill="none" xmlns="http://www.w3.org/2000/svg">
<rect opacity="0.2" x="5" y="5" width="38" height="38" rx="4" fill="black"/>
<path d="M5 13C5 9.22876 5 7.34315 6.17157 6.17157C7.34315 5 9.22876 5 13 5H35C38.7712 5 40.6569 5 41.8284 6.17157C43 7.34315 43 9.22876 43 13V15H5V13Z" fill="black"/>
<path d="M9.08416 34.9318H17.462V38H20.9904V34.9318H23.1552V31.9744H20.9904V20.5455H16.3711L9.08416 32.0256V34.9318ZM17.5302 31.9744H12.8001V31.8381L17.3938 24.5682H17.5302V31.9744ZM32.1254 38.2386C36.0629 38.2386 38.8924 36.1335 38.9009 33.304C38.8924 31.1222 37.2134 29.3409 35.1168 28.9915V28.8722C36.9407 28.4972 38.2447 26.9205 38.2532 25.0028C38.2447 22.3011 35.6538 20.3068 32.1254 20.3068C28.5884 20.3068 25.9975 22.3011 26.006 25.0028C25.9975 26.9119 27.2844 28.4972 29.1424 28.8722V28.9915C27.0117 29.3409 25.3498 31.1222 25.3583 33.304C25.3498 36.1335 28.1879 38.2386 32.1254 38.2386ZM32.1254 35.5284C30.3697 35.5284 29.1935 34.4886 29.1935 33.0142C29.1935 31.5057 30.4293 30.4148 32.1254 30.4148C33.8129 30.4148 35.0572 31.5057 35.0572 33.0142C35.0572 34.4972 33.8725 35.5284 32.1254 35.5284ZM32.1254 27.7301C30.6509 27.7301 29.6026 26.767 29.6026 25.3864C29.6026 24.0227 30.6339 23.0852 32.1254 23.0852C33.6083 23.0852 34.6481 24.0312 34.6481 25.3864C34.6481 26.767 33.5913 27.7301 32.1254 27.7301Z" fill="black"/>
</svg>

<svg xmlns="http://www.w3.org/2000/svg" width="48" height="48" fill="none" viewBox="0 0 48 48">
  <rect width="38" height="38" x="5" y="5" fill="#000" opacity=".2" rx="4"/>
  <path fill="#000" d="M5 13c0-3.771 0-5.657 1.172-6.828C7.343 5 9.229 5 13 5h22c3.771 0 5.657 0 6.828 1.172C43 7.343 43 9.229 43 13v2H5v-2zM9.084 34.932h8.378V38h3.528v-3.068h2.165v-2.958H20.99V20.546h-4.619l-7.287 11.48v2.906zm8.446-2.958H12.8v-.136l4.594-7.27h.136v7.406zm14.595 6.265c3.938 0 6.767-2.105 6.776-4.935-.009-2.182-1.688-3.963-3.784-4.313v-.119c1.824-.375 3.128-1.951 3.136-3.87-.008-2.7-2.6-4.695-6.128-4.695-3.537 0-6.128 1.994-6.119 4.696-.009 1.909 1.278 3.494 3.136 3.87v.118c-2.13.35-3.792 2.131-3.784 4.313-.008 2.83 2.83 4.935 6.767 4.935zm0-2.71c-1.755 0-2.931-1.04-2.931-2.515 0-1.508 1.235-2.6 2.931-2.6 1.688 0 2.932 1.092 2.932 2.6 0 1.483-1.184 2.514-2.932 2.514zm0-7.799c-1.474 0-2.522-.963-2.522-2.344 0-1.363 1.03-2.3 2.522-2.3 1.483 0 2.523.945 2.523 2.3 0 1.381-1.057 2.344-2.523 2.344z"/>
</svg>
